svg/critical.svg

<?xml version="1.0" encoding="UTF-8"?>
<svg xmlns="http://www.w3.org/2000/svg" xmlns:xlink="http://www.w3.org/1999/xlink" width="32" height="32" viewBox="0 0 32 32">
<path fill-rule="nonzero" fill="rgb(0%, 0%, 0%)" fill-opacity="1" d="M 16 2.558594 C 15.300781 2.554688 14.652344 2.933594 14.3125 3.546875 L 0.898438 27.132812 C 0.546875 27.746094 0.550781 28.5 0.910156 29.109375 C 1.265625 29.71875 1.890625 30.078125 2.589844 30.078125 L 29.410156 30.078125 C 30.109375 30.078125 30.734375 29.71875 31.089844 29.109375 C 31.449219 28.492188 31.453125 27.753906 31.101562 27.132812 L 17.6875 3.546875 C 17.347656 2.933594 16.699219 2.554688 16 2.558594 M 5.761719 3.832031 C 5.511719 3.828125 5.285156 3.972656 5.175781 4.195312 C 5.070312 4.421875 5.101562 4.6875 5.261719 4.878906 L 7.820312 8.078125 C 7.925781 8.210938 8.078125 8.296875 8.25 8.316406 C 8.417969 8.335938 8.585938 8.285156 8.71875 8.179688 C 8.851562 8.074219 8.9375 7.917969 8.957031 7.75 C 8.976562 7.582031 8.925781 7.414062 8.820312 7.28125 L 6.261719 4.078125 C 6.140625 3.925781 5.957031 3.835938 5.761719 3.832031 M 26.21875 3.832031 C 26.03125 3.839844 25.855469 3.929688 25.738281 4.078125 L 23.179688 7.28125 C 23.074219 7.414062 23.023438 7.582031 23.042969 7.75 C 23.0625 7.921875 23.148438 8.074219 23.28125 8.179688 C 23.554688 8.402344 23.960938 8.355469 24.179688 8.078125 L 26.738281 4.878906 C 26.898438 4.683594 26.929688 4.414062 26.820312 4.1875 C 26.707031 3.960938 26.472656 3.824219 26.21875 3.832031 M 1.898438 8.316406 C 1.605469 8.324219 1.351562 8.53125 1.289062 8.820312 C 1.226562 9.105469 1.367188 9.402344 1.632812 9.53125 L 5.472656 11.453125 C 5.785156 11.589844 6.148438 11.457031 6.300781 11.152344 C 6.453125 10.847656 6.339844 10.476562 6.046875 10.308594 L 2.207031 8.386719 C 2.109375 8.339844 2.003906 8.316406 1.898438 8.316406 M 30.082031 8.316406 C 29.980469 8.316406 29.882812 8.339844 29.792969 8.386719 L 25.953125 10.308594 C 25.652344 10.476562 25.535156 10.851562 25.691406 11.15625 C 25.84375 11.464844 26.210938 11.59375 26.527344 11.453125 L 30.367188 9.53125 C 30.636719 9.402344 30.785156 9.101562 30.714844 8.808594 C 30.644531 8.515625 30.382812 8.3125 30.082031 8.316406 M 15.359375 11.519531 L 16.640625 11.519531 C 16.996094 11.519531 17.28125 11.804688 17.28125 12.160156 L 17.28125 21.121094 C 17.28125 21.472656 16.992188 21.761719 16.640625 21.761719 L 15.359375 21.761719 C 15.003906 21.761719 14.71875 21.472656 14.71875 21.121094 L 14.71875 12.160156 C 14.71875 11.992188 14.785156 11.828125 14.90625 11.707031 C 15.027344 11.585938 15.1875 11.519531 15.359375 11.519531 M 0.640625 14.078125 C 0.410156 14.078125 0.195312 14.199219 0.078125 14.398438 C -0.0390625 14.597656 -0.0351562 14.84375 0.0820312 15.042969 C 0.195312 15.242188 0.410156 15.359375 0.640625 15.359375 L 4.480469 15.359375 C 4.710938 15.363281 4.925781 15.242188 5.042969 15.042969 C 5.15625 14.84375 5.15625 14.597656 5.042969 14.398438 C 4.925781 14.199219 4.710938 14.078125 4.480469 14.078125 Z M 27.519531 14.078125 C 27.289062 14.078125 27.074219 14.199219 26.957031 14.398438 C 26.84375 14.597656 26.84375 14.84375 26.960938 15.042969 C 27.074219 15.242188 27.289062 15.359375 27.519531 15.359375 L 31.359375 15.359375 C 31.589844 15.363281 31.804688 15.242188 31.921875 15.042969 C 32.035156 14.84375 32.035156 14.597656 31.921875 14.398438 C 31.804688 14.199219 31.589844 14.078125 31.359375 14.078125 Z M 15.359375 23.679688 L 16.640625 23.679688 C 16.996094 23.679688 17.28125 23.964844 17.28125 24.320312 L 17.28125 25.601562 C 17.28125 25.953125 16.992188 26.238281 16.640625 26.238281 L 15.359375 26.238281 C 15.007812 26.238281 14.71875 25.953125 14.71875 25.601562 L 14.71875 24.320312 C 14.71875 23.964844 15.003906 23.679688 15.359375 23.679688 M 15.359375 23.679688 "/>
</svg>

<svg role="img" viewBox="0 0 32 32" height="32" width="32" xmlns="http://www.w3.org/2000/svg"><path d="M16 2.559a1.92 1.92 0 0 0-1.687.988L.898 27.133a1.965 1.965 0 0 0 .012 1.976c.356.61.98.97 1.68.97h26.82c.7 0 1.324-.36 1.68-.97.36-.617.363-1.355.012-1.976L17.688 3.547A1.923 1.923 0 0 0 16 2.559M5.762 3.832a.644.644 0 0 0-.586.363.64.64 0 0 0 .086.684l2.558 3.2a.636.636 0 0 0 .899.1.636.636 0 0 0 .101-.898L6.262 4.078a.655.655 0 0 0-.5-.246m20.457 0a.647.647 0 0 0-.48.246l-2.56 3.203a.636.636 0 0 0 .102.899c.274.222.68.175.899-.102l2.558-3.2a.646.646 0 0 0 .082-.69.647.647 0 0 0-.601-.356M1.899 8.316a.64.64 0 0 0-.266 1.215l3.84 1.922a.641.641 0 0 0 .574-1.144l-3.84-1.922a.661.661 0 0 0-.309-.07m28.183 0a.62.62 0 0 0-.289.07l-3.84 1.923a.641.641 0 0 0 .574 1.145l3.84-1.923a.638.638 0 0 0-.285-1.215M15.359 11.52h1.282a.64.64 0 0 1 .64.64v8.961c0 .352-.289.64-.64.64h-1.282a.641.641 0 0 1-.64-.64v-8.96a.64.64 0 0 1 .64-.641M.641 14.078a.652.652 0 0 0-.563.32.64.64 0 0 0 .563.96l3.84.001a.64.64 0 0 0 .562-.96.652.652 0 0 0-.563-.32Zm26.879 0a.652.652 0 0 0-.563.32.64.64 0 0 0 .563.96l3.84.001a.64.64 0 0 0 .562-.96.652.652 0 0 0-.563-.32ZM15.36 23.68h1.28c.356 0 .641.285.641.64v1.282a.638.638 0 0 1-.64.636h-1.282a.638.638 0 0 1-.64-.636V24.32c0-.355.285-.64.64-.64m0 0"/></svg>
